public/img/svg/fire.svg

<svg width="16" height="16" viewBox="0 0 16 16" fill="none" xmlns="http://www.w3.org/2000/svg">
<path fill-rule="evenodd" clip-rule="evenodd" d="M11.0081 12.3561C11.2057 11.6332 10.822 10.1472 10.822 10.1472C10.822 10.1472 10.5437 11.3578 10.1088 11.8052C9.73784 12.1869 9.28331 12.4516 8.63144 12.5212C9.1644 12.2623 9.53093 11.7225 9.53093 11.0986C9.53093 10.2228 8.80869 9.51278 7.91775 9.51278C7.02681 9.51278 6.30453 10.2228 6.30453 11.0986C6.30453 11.3378 6.35844 11.5646 6.45491 11.768C5.89766 11.3241 5.81003 10.6123 5.81003 10.6123C5.81003 10.6123 5.18778 13.1958 6.90234 14.411C8.61687 15.6263 11.9756 14.5817 11.9756 14.5817C11.9756 14.5817 7.16906 17.9637 3.60738 14.2828C0.539281 11.112 2.8066 6.93759 2.8066 6.93759C2.8066 6.93759 2.70868 7.32484 2.70868 7.77437C2.70868 8.22391 2.95241 8.56594 2.95241 8.56594C2.95241 8.56594 3.67944 7.03347 4.24525 6.41025C4.78075 5.82044 5.45203 5.34206 6.03184 4.92887C6.47816 4.61081 6.87028 4.33138 7.10447 4.06947C8.39437 2.62715 7.60347 0 7.60347 0C7.60347 0 9.05753 1.28188 9.46347 2.93743C9.61822 3.5685 9.51865 4.28653 9.42965 4.92863C9.28515 5.971 9.16837 6.81328 10.2123 6.75863C11.8992 6.67028 10.4333 4.06947 10.4333 4.06947C10.4333 4.06947 14.2599 6.08072 13.9741 9.59828C13.6882 13.1158 9.79137 13.9155 9.79137 13.9155C9.79137 13.9155 10.8103 13.0789 11.0081 12.3561Z" fill="white"/>
</svg>

<svg xmlns="http://www.w3.org/2000/svg" width="16" height="16" fill="none"><path fill="#fff" fill-rule="evenodd" d="M11.008 12.356c.198-.723-.186-2.209-.186-2.209s-.278 1.21-.713 1.658a2.297 2.297 0 0 1-1.478.716c.533-.259.9-.799.9-1.422 0-.876-.722-1.586-1.613-1.586s-1.613.71-1.613 1.586c0 .239.053.466.15.669-.557-.444-.645-1.156-.645-1.156s-.622 2.584 1.092 3.799c1.715 1.215 5.074.17 5.074.17s-4.807 3.383-8.369-.298c-3.068-3.171-.8-7.345-.8-7.345s-.098.387-.098.836c0 .45.243.792.243.792S3.68 7.033 4.245 6.41c.536-.59 1.207-1.068 1.787-1.481.446-.318.838-.598 1.072-.86 1.29-1.442.5-4.069.5-4.069s1.454 1.282 1.86 2.937c.154.631.055 1.35-.034 1.992-.145 1.042-.262 1.884.782 1.83 1.687-.089.221-2.69.221-2.69s3.827 2.012 3.541 5.53c-.286 3.517-4.183 4.316-4.183 4.316s1.02-.836 1.217-1.559Z" clip-rule="evenodd"/></svg>
